src/actions/22/tools-rip-audio-cd.svg

<svg xmlns="http://www.w3.org/2000/svg" viewBox="0 0 22 22">
    <path d="M11 3c-4.432 0-8 3.568-8 8s3.568 8 8 8v-1c-3.878 0-7-3.122-7-7s3.122-7 7-7 7 3.122 7 7h1c0-4.432-3.568-8-8-8zm0 2c-3.324 0-6 2.676-6 6h3c0-1.662 1.338-3 3-3V5zm0 4c-1.108 0-2 .892-2 2s.892 2 2 2v-1c-.554 0-1-.446-1-1s.446-1 1-1 1 .446 1 1h1c0-1.108-.892-2-2-2zm4 1v5.277A1.983 1.983 0 0 0 14 15c-1.108 0-2 .892-2 2s.892 2 2 2 2-.892 2-2v-6h1l-1-1h-1z" style="fill:currentColor;fill-opacity:1;stroke:none;color:#050505;opacity:.7"/>
</svg>

<svg xmlns="http://www.w3.org/2000/svg" viewBox="0 0 22 22">
  <defs id="defs3051">
    <style type="text/css" id="current-color-scheme">
      .ColorScheme-Text {
        color:#363636;
      }
      </style>
  </defs>
 <path 
    style="fill:currentColor;fill-opacity:1;stroke:none" 
    d="M 11 3 C 6.568 3 3 6.568 3 11 C 3 15.432 6.568 19 11 19 L 11 18 C 7.122 18 4 14.878 4 11 C 4 7.122 7.122 4 11 4 C 14.878 4 18 7.122 18 11 L 19 11 C 19 6.568 15.432 3 11 3 z M 11 5 C 7.676 5 5 7.676 5 11 L 8 11 C 8 9.338 9.338 8 11 8 L 11 5 z M 11 9 C 9.892 9 9 9.892 9 11 C 9 12.108 9.892 13 11 13 L 11 12 C 10.446 12 10 11.554 10 11 C 10 10.446 10.446 10 11 10 C 11.554 10 12 10.446 12 11 L 13 11 C 13 9.892 12.108 9 11 9 z M 15 10 L 15 15.277344 C 14.704935 15.106143 14.367047 15 14 15 C 12.892 15 12 15.892 12 17 C 12 18.108 12.892 19 14 19 C 15.108 19 16 18.108 16 17 L 16 12 L 16 11 L 17 11 L 16 10 L 15 10 z "
    class="ColorScheme-Text"
    />  
</svg>
